flaticon/outdoor/fishing.svg

<svg xmlns="http://www.w3.org/2000/svg" width="32" height="32" viewBox="0 0 24 24">
    <path d="M 19.007812 11.640625 C 18.800781 11.558594 18.566406 11.660156 18.488281 11.867188 C 18.40625 12.070312 18.507812 12.304688 18.714844 12.382812 C 21.523438 13.488281 23.199219 15.21875 23.199219 17.011719 C 23.199219 20.210938 18.175781 22.8125 12 22.8125 C 5.824219 22.8125 0.800781 20.210938 0.800781 17.011719 C 0.800781 15.203125 2.5 13.464844 5.34375 12.359375 C 5.550781 12.28125 5.652344 12.050781 5.574219 11.84375 C 5.492188 11.636719 5.261719 11.535156 5.054688 11.613281 C 1.890625 12.839844 0 14.859375 0 17.011719 C 0 20.710938 5.269531 23.613281 12 23.613281 C 18.730469 23.613281 24 20.710938 24 17.011719 C 24 14.84375 22.179688 12.886719 19.007812 11.640625 Z M 19.007812 11.640625"/>
    <path d="M 1.601562 17.011719 C 1.601562 19.957031 7.082031 22.011719 12 22.011719 C 16.917969 22.011719 22.398438 19.957031 22.398438 17.011719 C 22.398438 15.53125 21.03125 14.175781 18.546875 13.199219 C 18.339844 13.117188 18.109375 13.21875 18.027344 13.425781 C 17.945312 13.632812 18.046875 13.863281 18.253906 13.945312 C 20.378906 14.78125 21.601562 15.898438 21.601562 17.011719 C 21.601562 19.171875 16.933594 21.210938 12 21.210938 C 7.066406 21.210938 2.398438 19.171875 2.398438 17.011719 C 2.398438 15.898438 3.621094 14.78125 5.746094 13.945312 C 5.953125 13.863281 6.054688 13.632812 5.972656 13.425781 C 5.890625 13.222656 5.660156 13.121094 5.453125 13.199219 C 2.96875 14.175781 1.601562 15.53125 1.601562 17.011719 Z M 1.601562 17.011719"/>
    <path d="M 3.199219 17.011719 C 3.199219 18.886719 8.523438 20.410156 12 20.410156 C 16.859375 20.410156 20.800781 18.355469 20.800781 17.011719 C 20.800781 16.085938 19.21875 15.164062 17.742188 14.609375 C 17.535156 14.53125 17.304688 14.636719 17.226562 14.84375 C 17.148438 15.050781 17.253906 15.28125 17.460938 15.359375 C 19.375 16.078125 20 16.832031 20 17.011719 C 20 17.640625 16.679688 19.613281 12 19.613281 C 7.320312 19.613281 4 17.640625 4 17.011719 C 4 16.851562 4.511719 16.195312 6.152344 15.511719 C 6.359375 15.425781 6.453125 15.191406 6.367188 14.988281 C 6.285156 14.785156 6.050781 14.6875 5.84375 14.773438 C 5.226562 15.03125 3.199219 15.957031 3.199219 17.011719 Z M 3.199219 17.011719"/>
    <path d="M 7.601562 17.988281 C 7.820312 17.988281 8 17.808594 8 17.589844 C 8 16.472656 8.109375 15.554688 8.285156 14.789062 L 15.714844 14.789062 C 15.890625 15.554688 16 16.472656 16 17.589844 C 16 17.808594 16.179688 17.988281 16.398438 17.988281 C 16.621094 17.988281 16.800781 17.808594 16.800781 17.589844 C 16.800781 13.394531 15.355469 11.734375 14.492188 10.746094 L 14.371094 10.601562 C 14.132812 10.324219 14 9.964844 14 9.589844 L 14 7.988281 L 12.398438 7.988281 L 12.398438 5.355469 L 13.316406 6.269531 C 13.394531 6.347656 13.496094 6.386719 13.601562 6.386719 C 13.703125 6.386719 13.804688 6.347656 13.882812 6.269531 C 14.039062 6.113281 14.039062 5.863281 13.882812 5.707031 L 12.964844 4.789062 L 13.601562 4.789062 C 13.820312 4.789062 14 4.609375 14 4.386719 C 14 4.167969 13.820312 3.988281 13.601562 3.988281 L 12.964844 3.988281 L 13.882812 3.070312 C 14.039062 2.914062 14.039062 2.660156 13.882812 2.503906 C 13.726562 2.347656 13.472656 2.347656 13.316406 2.503906 L 12.398438 3.421875 L 12.398438 0.789062 C 12.398438 0.566406 12.222656 0.386719 12 0.386719 C 11.777344 0.386719 11.601562 0.566406 11.601562 0.789062 L 11.601562 3.421875 L 10.683594 2.503906 C 10.527344 2.347656 10.273438 2.347656 10.117188 2.503906 C 9.960938 2.660156 9.960938 2.914062 10.117188 3.070312 L 11.035156 3.988281 L 10.398438 3.988281 C 10.179688 3.988281 10 4.167969 10 4.386719 C 10 4.609375 10.179688 4.789062 10.398438 4.789062 L 11.035156 4.789062 L 10.117188 5.707031 C 9.960938 5.863281 9.960938 6.113281 10.117188 6.269531 C 10.195312 6.347656 10.296875 6.386719 10.398438 6.386719 C 10.503906 6.386719 10.605469 6.347656 10.683594 6.269531 L 11.601562 5.355469 L 11.601562 7.988281 L 10 7.988281 L 10 9.589844 C 10 9.964844 9.867188 10.324219 9.628906 10.601562 L 9.507812 10.746094 C 8.644531 11.734375 7.199219 13.390625 7.199219 17.589844 C 7.199219 17.808594 7.378906 17.988281 7.601562 17.988281 Z M 10.109375 11.269531 L 10.238281 11.125 C 10.601562 10.703125 10.800781 10.15625 10.800781 9.589844 L 10.800781 8.789062 L 13.199219 8.789062 L 13.199219 9.589844 C 13.199219 10.15625 13.398438 10.703125 13.761719 11.125 L 13.890625 11.269531 C 14.367188 11.820312 15.039062 12.597656 15.496094 13.988281 L 8.503906 13.988281 C 8.960938 12.597656 9.632812 11.820312 10.109375 11.269531 Z M 10.109375 11.269531"/>
</svg>

<svg xmlns="http://www.w3.org/2000/svg" width="32" height="32" viewBox="0 0 24 24">
    <path d="M19.008 11.64a.398.398 0 0 0-.52.227.395.395 0 0 0 .227.516c2.808 1.105 4.484 2.836 4.484 4.629 0 3.199-5.023 5.8-11.199 5.8S.8 20.212.8 17.012c0-1.809 1.7-3.547 4.544-4.653a.398.398 0 0 0 .23-.515.404.404 0 0 0-.52-.23C1.892 12.84 0 14.858 0 17.011c0 3.699 5.27 6.601 12 6.601s12-2.902 12-6.601c0-2.168-1.82-4.125-4.992-5.371zm0 0"/>
    <path d="M1.602 17.012c0 2.945 5.48 5 10.398 5 4.918 0 10.398-2.055 10.398-5 0-1.48-1.367-2.836-3.851-3.813a.4.4 0 0 0-.52.227.4.4 0 0 0 .227.52c2.125.835 3.348 1.952 3.348 3.066 0 2.16-4.668 4.199-9.602 4.199s-9.602-2.04-9.602-4.2c0-1.113 1.223-2.23 3.348-3.066a.4.4 0 0 0 .227-.52.406.406 0 0 0-.52-.226c-2.484.977-3.851 2.332-3.851 3.813zm0 0"/>
    <path d="M3.2 17.012c0 1.875 5.323 3.398 8.8 3.398 4.86 0 8.8-2.055 8.8-3.398 0-.926-1.581-1.848-3.058-2.403a.4.4 0 1 0-.281.75c1.914.72 2.539 1.473 2.539 1.653 0 .629-3.32 2.601-8 2.601s-8-1.972-8-2.601c0-.16.512-.817 2.152-1.5.207-.086.301-.32.215-.524a.398.398 0 0 0-.523-.215c-.617.258-2.645 1.184-2.645 2.239zm0 0"/>
    <path d="M7.602 17.988A.4.4 0 0 0 8 17.59c0-1.117.11-2.035.285-2.8h7.43c.176.765.285 1.683.285 2.8a.4.4 0 0 0 .8 0c0-4.195-1.445-5.856-2.308-6.844l-.12-.144A1.552 1.552 0 0 1 14 9.59V7.988h-1.602V5.355l.918.915a.399.399 0 0 0 .567 0 .396.396 0 0 0 0-.563l-.918-.918h.637a.401.401 0 0 0 0-.8h-.637l.918-.919a.4.4 0 0 0-.567-.566l-.918.918V.789a.398.398 0 1 0-.796 0v2.633l-.918-.918a.4.4 0 0 0-.567.566l.918.918h-.637a.4.4 0 0 0 0 .801h.637l-.918.918a.396.396 0 0 0 0 .563.399.399 0 0 0 .566 0l.919-.915v2.633H10V9.59c0 .375-.133.734-.371 1.012l-.121.144c-.863.988-2.309 2.645-2.309 6.844 0 .219.18.398.403.398zm2.507-6.718l.13-.145c.363-.422.562-.969.562-1.535v-.8h2.398v.8c0 .566.2 1.113.563 1.535l.129.145c.476.55 1.148 1.328 1.605 2.718H8.504c.457-1.39 1.129-2.168 1.605-2.718zm0 0"/>
</svg>
